src/demo/assets/sample-logo.svg

<svg width="200" height="100" viewBox="0 0 200 100" fill="none" xmlns="http://www.w3.org/2000/svg">
<rect width="200" height="100" rx="50" fill="#A2A8B3"/>
<path d="M35.9252 53.384C34.1332 53.384 32.7892 51.96 32.7732 49.512C32.7732 47.112 34.1492 45.624 35.9252 45.624C37.7652 45.624 38.6132 46.712 38.8052 48.04H40.7412C40.5012 45.672 38.9492 43.912 35.8772 43.912C32.9492 43.912 30.8052 46.136 30.8052 49.512C30.8052 52.936 32.9172 55.096 35.8772 55.096C38.9972 55.096 40.4852 53.336 40.7412 51H38.8052C38.6132 52.312 37.8132 53.384 35.9252 53.384ZM47.4007 55.096C50.4887 55.096 52.8247 52.936 52.8247 49.48C52.8247 46.024 50.4887 43.912 47.4007 43.912C44.3127 43.912 41.9767 46.088 41.9767 49.544C41.9767 53 44.3127 55.096 47.4007 55.096ZM47.4007 53.4C45.4967 53.4 43.9607 51.944 43.9607 49.512C43.9607 47.064 45.4967 45.624 47.4007 45.624C49.3047 45.624 50.8407 47.064 50.8407 49.512C50.8407 51.944 49.3047 53.4 47.4007 53.4ZM63.1882 44.024L60.3722 52.68L57.5402 44.024H54.7882L54.8042 55H56.6922V46.136L59.6362 55H61.0922L64.0362 46.136V55H65.9242L65.9402 44.024H63.1882ZM72.9538 44.024H68.5698V55H70.5218V50.824H72.9538C75.2738 50.824 76.7938 49.576 76.7938 47.4C76.7938 45.208 75.2738 44.024 72.9538 44.024ZM72.9538 49.192H70.5218V45.656H72.9538C74.1698 45.656 74.8098 46.408 74.8098 47.416C74.8098 48.44 74.1698 49.192 72.9538 49.192ZM84.8286 55H86.7966L82.8286 44.024H80.5566L76.5886 55H78.5566L79.4046 52.504H83.9806L84.8286 55ZM79.9646 50.904L81.6926 45.848L83.4206 50.904H79.9646ZM95.3617 44.024V52.056L90.1137 44.024H88.2417V55H90.1617V47L95.4097 55H97.2817V44.024H95.3617ZM108.346 44.024H106.25L103.514 48.936L100.778 44.024H98.6659L102.522 50.696V55H104.49V50.696L108.346 44.024ZM109.31 46.664V47.656C110.606 47.704 111.742 46.28 111.742 44.632C111.742 43.4 111.102 42.968 110.414 42.968C109.694 42.968 109.15 43.432 109.15 44.2C109.15 44.888 109.598 45.416 110.334 45.416C110.446 45.416 110.494 45.4 110.542 45.4C110.542 46.056 109.886 46.664 109.31 46.664ZM115.073 46.968C115.073 46.072 115.729 45.56 117.169 45.56C118.497 45.56 119.281 46.088 119.281 47.208H121.233C121.233 45.144 119.697 43.912 117.201 43.912C114.753 43.912 113.105 45.16 113.121 47.016C113.121 51.384 119.441 49.336 119.441 52.024C119.441 52.936 118.625 53.448 117.217 53.448C115.649 53.448 114.817 52.84 114.817 51.768L112.865 51.752C112.865 53.896 114.449 55.096 117.121 55.096C119.665 55.096 121.393 53.896 121.393 52.024C121.393 47.496 115.073 49.544 115.073 46.968ZM128.772 53.288V44.024H126.82V55H134.292V53.288H128.772ZM139.948 55.096C143.036 55.096 145.372 52.936 145.372 49.48C145.372 46.024 143.036 43.912 139.948 43.912C136.86 43.912 134.524 46.088 134.524 49.544C134.524 53 136.86 55.096 139.948 55.096ZM139.948 53.4C138.044 53.4 136.508 51.944 136.508 49.512C136.508 47.064 138.044 45.624 139.948 45.624C141.852 45.624 143.388 47.064 143.388 49.512C143.388 51.944 141.852 53.4 139.948 53.4ZM152.071 49.256V50.792H155.047C154.903 52.104 153.831 53.4 151.895 53.384C149.991 53.4 148.695 51.96 148.695 49.496C148.695 47.128 150.023 45.624 152.023 45.624C153.815 45.624 154.599 46.664 154.791 47.784H156.743C156.519 45.592 154.935 43.912 152.023 43.912C148.807 43.912 146.727 46.168 146.727 49.48C146.727 52.92 148.743 55.096 151.799 55.096C153.575 55.096 154.727 54.344 155.399 53.272V55H156.823V49.256H152.071ZM163.791 55.096C166.879 55.096 169.215 52.936 169.215 49.48C169.215 46.024 166.879 43.912 163.791 43.912C160.703 43.912 158.367 46.088 158.367 49.544C158.367 53 160.703 55.096 163.791 55.096ZM163.791 53.4C161.887 53.4 160.351 51.944 160.351 49.512C160.351 47.064 161.887 45.624 163.791 45.624C165.695 45.624 167.231 47.064 167.231 49.512C167.231 51.944 165.695 53.4 163.791 53.4Z" fill="white"/>
</svg>

<svg width="200" height="100" fill="none" xmlns="http://www.w3.org/2000/svg">
  <rect width="200" height="100" rx="50" fill="#A2A8B3"/>
  <path d="M35.925 53.384c-1.792 0-3.136-1.424-3.152-3.872 0-2.4 1.376-3.888 3.152-3.888 1.84 0 2.688 1.088 2.88 2.416h1.936c-.24-2.368-1.792-4.128-4.864-4.128-2.928 0-5.072 2.224-5.072 5.6 0 3.424 2.112 5.584 5.072 5.584 3.12 0 4.608-1.76 4.864-4.096h-1.936c-.192 1.312-.992 2.384-2.88 2.384zm11.476 1.712c3.088 0 5.424-2.16 5.424-5.616 0-3.456-2.336-5.568-5.424-5.568-3.088 0-5.424 2.176-5.424 5.632 0 3.456 2.336 5.552 5.424 5.552zm0-1.696c-1.904 0-3.44-1.456-3.44-3.888 0-2.448 1.536-3.888 3.44-3.888s3.44 1.44 3.44 3.888c0 2.432-1.536 3.888-3.44 3.888zm15.787-9.376-2.816 8.656-2.832-8.656h-2.752L54.804 55h1.888v-8.864L59.636 55h1.456l2.944-8.864V55h1.888l.016-10.976h-2.752zm9.766 0H68.57V55h1.952v-4.176h2.432c2.32 0 3.84-1.248 3.84-3.424 0-2.192-1.52-3.376-3.84-3.376zm0 5.168h-2.432v-3.536h2.432c1.216 0 1.856.752 1.856 1.76 0 1.024-.64 1.776-1.856 1.776zM84.829 55h1.968l-3.968-10.976h-2.272L76.589 55h1.968l.848-2.496h4.576L84.829 55zm-4.864-4.096 1.728-5.056 1.728 5.056h-3.456zm15.397-6.88v8.032l-5.248-8.032h-1.872V55h1.92v-8l5.248 8h1.872V44.024h-1.92zm12.984 0h-2.096l-2.736 4.912-2.736-4.912h-2.112l3.856 6.672V55h1.968v-4.304l3.856-6.672zm.964 2.64v.992c1.296.048 2.432-1.376 2.432-3.024 0-1.232-.64-1.664-1.328-1.664-.72 0-1.264.464-1.264 1.232 0 .688.448 1.216 1.184 1.216.112 0 .16-.016.208-.016 0 .656-.656 1.264-1.232 1.264zm5.763.304c0-.896.656-1.408 2.096-1.408 1.328 0 2.112.528 2.112 1.648h1.952c0-2.064-1.536-3.296-4.032-3.296-2.448 0-4.096 1.248-4.08 3.104 0 4.368 6.32 2.32 6.32 5.008 0 .912-.816 1.424-2.224 1.424-1.568 0-2.4-.608-2.4-1.68l-1.952-.016c0 2.144 1.584 3.344 4.256 3.344 2.544 0 4.272-1.2 4.272-3.072 0-4.528-6.32-2.48-6.32-5.056zm13.699 6.32v-9.264h-1.952V55h7.472v-1.712h-5.52zm11.176 1.808c3.088 0 5.424-2.16 5.424-5.616 0-3.456-2.336-5.568-5.424-5.568-3.088 0-5.424 2.176-5.424 5.632 0 3.456 2.336 5.552 5.424 5.552zm0-1.696c-1.904 0-3.44-1.456-3.44-3.888 0-2.448 1.536-3.888 3.44-3.888s3.44 1.44 3.44 3.888c0 2.432-1.536 3.888-3.44 3.888zm12.123-4.144v1.536h2.976c-.144 1.312-1.216 2.608-3.152 2.592-1.904.016-3.2-1.424-3.2-3.888 0-2.368 1.328-3.872 3.328-3.872 1.792 0 2.576 1.04 2.768 2.16h1.952c-.224-2.192-1.808-3.872-4.72-3.872-3.216 0-5.296 2.256-5.296 5.568 0 3.44 2.016 5.616 5.072 5.616 1.776 0 2.928-.752 3.6-1.824V55h1.424v-5.744h-4.752zm11.72 5.84c3.088 0 5.424-2.16 5.424-5.616 0-3.456-2.336-5.568-5.424-5.568-3.088 0-5.424 2.176-5.424 5.632 0 3.456 2.336 5.552 5.424 5.552zm0-1.696c-1.904 0-3.44-1.456-3.44-3.888 0-2.448 1.536-3.888 3.44-3.888s3.44 1.44 3.44 3.888c0 2.432-1.536 3.888-3.44 3.888z" fill="#fff"/>
</svg>
